public/icons/dark/pwa.darkmode.svg

<svg width="192" height="192" viewBox="0 0 192 192" fill="none" xmlns="http://www.w3.org/2000/svg">
<path d="M137.41 117.2L142.48 104.38H157.12L150.17 84.93L158.86 62.96L183.75 129.04H165.4L161.15 117.21H137.42L137.41 117.2Z" fill="#FBFBFB"/>
<path d="M121.76 129.04L148.4 62.96H130.74L112.52 105.66L99.5599 62.96H85.9799L72.0699 105.66L62.2599 86.2L53.3799 113.56L62.3999 129.03H79.7799L92.3499 90.74L104.34 129.03H121.77L121.76 129.04Z" fill="#5A0FC8"/>
<path d="M25.02 106.36H35.9C39.2 106.36 42.13 105.99 44.7 105.26L47.51 96.5897L55.37 72.3597C54.77 71.4097 54.09 70.5097 53.32 69.6697C49.28 65.1997 43.38 62.9697 35.6 62.9697H8.25V129.05H25.02V106.37V106.36ZM39.42 78.1697C41 79.7597 41.79 81.8797 41.79 84.5397C41.79 87.1997 41.1 89.3497 39.71 90.9197C38.19 92.6697 35.39 93.5397 31.31 93.5397H25.02V75.7897H31.35C35.15 75.7897 37.84 76.5797 39.42 78.1697Z" fill="#FBFBFB"/>
</svg>

<?xml version="1.0" encoding="UTF-8"?><svg id="icons" xmlns="http://www.w3.org/2000/svg" viewBox="0 0 192 192"><defs><style>.cls-1{fill:#5a0fc8;}.cls-2{fill:#3d3d3d;}</style></defs><path class="cls-2" d="M137.41,117.2l5.07-12.82h14.64l-6.95-19.45,8.69-21.97,24.89,66.08h-18.35l-4.25-11.83h-23.73Z"/><path class="cls-1" d="M121.76,129.04l26.64-66.08h-17.66s-18.22,42.7-18.22,42.7l-12.96-42.7h-13.58l-13.91,42.7-9.81-19.46-8.88,27.36,9.02,15.47h17.38l12.57-38.29,11.99,38.29h17.43Z"/><path class="cls-2" d="M25.02,106.36h10.88c3.3,0,6.23-.37,8.8-1.1l2.81-8.67,7.86-24.23c-.6-.95-1.28-1.85-2.05-2.69-4.04-4.47-9.94-6.7-17.72-6.7H8.25v66.08H25.02v-22.68Zm14.4-28.19c1.58,1.59,2.37,3.71,2.37,6.37s-.69,4.81-2.08,6.38c-1.52,1.75-4.32,2.62-8.4,2.62h-6.29v-17.75h6.33c3.8,0,6.49,.79,8.07,2.38Z"/></svg>
